X:25
T:Lichtmann 25
C:G. P. Telemann
M:C
L:1/8
Q:"Allegro" 1/4=116
K:Bb
!f!B2"_grandioso"B>cB2F2|B>c d2-d>e f>e|d2 d>ed2c2|B>cd2-d>cd>B|
c2f2e2d2|d2c>B c>F d2|c2f2e2d2|d2 c>B c>F c2|
d2G2c2F2|G>A B4 A>G|A2 B>C G3 F|F2f2c>B A>G|
A2f2 c>B A>G|A>F B4 A>G|A2B>cG3F|F8|]

